X:1
T:James Gibb editions
T:Ad te levavi - Witt
T:#
%%score [ 1 2 3 4 ]
L:1/8
Q:1/4=76
M:4/4
K:F
V:1 treble nm="Soprano"
V:2 treble nm="Alto"
V:3 treble-8 nm="Tenor"
V:4 bass nm="Bass"
V:1
"^Franz Xaver Witt\n(1834-1888)""^Ad te levavi" z2!mf!!<(! F2 F2 F2!<)! |!>(! A4 A4!>)! | %2
w: Ad te le-|va- vi|
 z2!<(! !>!A3 A A2!<)! |!>(! c4 c4!>)! | z2!<(! c4 c2!<)! |[M:4/4]!f! d4 d2 d2 | d4 d4 | %7
w: a- ni- mam|me- am:|De- us|me- us, in|te con-|
 d4"^dim." ^c4 | z2!p!!<(! A2 A2 A2!<)! | B4 c4 |!f! d2 dd F2!>(! GG | A4!>)!!f!"^," B2 B2 | %12
w: fi- do,|non e- ru-|bes- cam:|ne- que i- ri- de- ant|me i- ni-|
 B4 A4 |"^dim."!>(! (G6 F2)!>)! |!p! E8 |!pp! ^F3 F F2 FF | A4 A4 | %17
w: mi- ci|me\- *|i:|et e- nim u- ni-|ver- si,|
"^marcato" z2"^cresc.""^molto" G2 G2 G2 | (G2 !courtesy!_B4) AA | (B4 c2) _e2 | !>!_e2 !>!d2 z4 | %21
w: qui te ex-|spe\- * ctant. qui|te * ex-|spe- ctant,|
!<(!!>(! F8!<)!!>)! |!mf! B4 A2 G2 |"^dim." G8 |!p!"^," F4!f!"^,""^," A4 |!f! G4 E2[Q:1/4=74] F2 | %26
w: non,|non con- fun-|den-|tur, non,|non con- fun-|
"^rit. e""^dim."[Q:1/4=72] E8[Q:1/4=71][Q:1/4=70][Q:1/4=67] |!pp![Q:1/4=66] !fermata!^F8 |] %28
w: den-|tur.|
V:2
 z2!mf!!<(! C2 C2 C2!<)! |!>(! F4 F4!>)! | z2!<(! !>!F3 F F2!<)! |!>(! (F2 ED) E4!>)! | %4
w: Ad te le-|va- vi|a- ni- mam|me\- * * am:|
 z2!<(! G4 G2!<)! |[M:4/4]!f! B4 B2 B2 | A4 B4 | A4"^dim." A4 | z2!p!!<(! E2 E2 E2!<)! | %9
w: De- us|me- us, in|te con-|fi- do,|non e- ru-|
 G4 A4"^," |!f! B2 BB F2!>(! DD | E4!>)!!f!"^," !courtesy!=F2 F2 | (F2 E4) D2- | %13
w: bes- cam:|ne- que i- ri- de- ant|me i- ni-|mi\- * ci|
"^dim." D2!>(! (^C4 D2)!>)! |!p! ^C8 |!pp! D3 D D2 DD | E4 E4 | z2"^cresc.""^molto" D2 D2 F2 | %18
w: * me\- *|i:|et e- nim u- ni-|ver- si,|qui te ex-|
 (FEFG F2) F2 | z2 F2 G2 G2 | !>!F2 !>!F2 z4 |!<(!!>(! D8!<)!!>)! |!mf! G4 F2 F2 | %23
w: spe\- * * * * ctant.|qui te ex-|spe- ctant,|non,|non con- fun-|
"^dim." (F2 ED E4) |!p!"^," F4!f!"^," D4 |!f! D4 ^C2 D2 |"^rit. e""^dim." (D2 ^C=B, C4) | %27
w: den\- * * *|tur, non,|non con- fun-|den\- * * *|
!pp! !fermata!D8 |] %28
w: tur.|
V:3
 z2!mf!!<(! A2 A2 A2!<)! |!>(! A4 d4!>)! | z2!<(! !>!A3 A F2!<)! |!>(! G4 G4!>)! | %4
w: Ad te le-|va- vi|a- ni- mam|me- am:|
 z2!<(! e4 e2!<)! |[M:4/4][K:treble-8]!f! f4 g2 g2 | f6 g2 | e4"^dim." e4 | %8
w: De- us|me- us, in|te con-|fi- do,|
 z2!p!!<(! ^c2 c2 c2!<)! | d4 f4"^," |!f! f2 ff d2!>(! dd | ^c4!>)!!f!"^," d2 d2 | (B4 c2) A2 | %13
w: non e- ru-|bes- cam:|ne- que i- ri- de- ant|me i- ni-|mi\- * ci|
"^dim."!>(! (B2 G2 A4)!>)! |!p! A8 |!pp! A3 A A2 AA | A4 A4 | z2"^cresc.""^molto" D2 G2 G2 | %18
w: me\- * *|i:|et e- nim u- ni-|ver- si,|qui te ex-|
 (G3 c) c4 | z2 B2 B2 (Bc) | !>!c2 !>!B2 z4 |!>(!!<(! B8!>)!!<)! |!mf! d4 c2 d2 |"^dim." (c6 B2) | %24
w: spe\- * ctant,|qui te ex\- *|spe- ctant,|non,|non con- fun-|den\- *|
!p!"^," A4!f!"^," A4 |!f! B4 A2 A2 |"^rit. e""^dim." A8 |!pp! !fermata!A8 |] %28
w: tur, non,|non con- fun-|den-|tur.|
V:4
 z2!mf!!<(! F,2 F,2 F,2!<)! |!>(! D,4 D,4!>)! | z2!<(! !>!D,3 D, D,2!<)! |!>(! C,4 C,4!>)! | %4
w: Ad te le-|va- vi|a- ni- mam|me- am:|
 z2!<(! C4 C2!<)! |[M:4/4]!f! B,4 G,2 G,2 | (D2 C2 B,2) G,2 | A,4"^dim." A,4 | %8
w: De- us|me- us, in|te * * con-|fi- do,|
 z2!p!!<(! A,2 A,2 A,2!<)! | G,4 F,4"^," |!f! B,2 B,B, B,2!>(! B,,B,, | %11
w: non e- ru-|bes- cam:|ne- que i- ri- de- ant|
 (A,,2!>)! A,4)"^,"!f! G,G, | G,6 F,2 |"^dim."!>(! (E,4 D,4)!>)! |!p! A,,8"^," | %15
w: me * i- ni-|mi- ci|me\- *|i:|
!pp! D,3 D, D,2 D,D, | ^C,4 =C,2 C,2 |"^cresc.""^molto" =B,,4 B,,4 | (C,2 D,E, F,2) F,2 | %19
w: et e- nim u- ni-|ver- si, qui|te ex-|spe\- * * * ctant,|
 z2 D,2 _E,2 (G,A,) | !>!B,2 !>!B,2 z4 |!>(!!<(! B,,8!>)!!<)! |!mf! G,,4 A,,2 B,,2 |"^dim." C,8 | %24
w: qui te ex\- *|spe- ctant,|non,|non con- fun-|den-|
!p!"^," D,4!f!"^," F,,4 |!f! G,,4 A,,2 D,2 |"^rit. e""^dim." A,,8 |!pp! !fermata![D,,D,]8 |] %28
w: tur, non,|non con- fun-|den-|tur.|

